X:266
T:B266-  The King's Jig, or Winchester Wedding
Q:1/4=120
M:3/4
L:1/4
K:Bb
B,|DEF|G2F|FDB,|D2F|BG2|c2F|\
(DE)F|G2F|FDF|GAB|cAF|B2B,|DEF|GGF|\
D2B,|DEF|BAG|c2C|(DE)F|GGF|D2F|(GA)B|\
cAF|B2":s:"g|fdB|f2B|c2G|cde|GGc|A2F|\
BGE|GBG|cAd|GAB|B2A|.B2|]
